icons/file-added-24.svg

<svg width="24" height="24" viewBox="0 0 24 24">
  <path
    d="M12 8.25C12.4142 8.25 12.75 8.58579 12.75 9V11.25H15C15.4142 11.25 15.75 11.5858 15.75 12C15.75 12.4142 15.4142 12.75 15 12.75H12.75V15C12.75 15.4142 12.4142 15.75 12 15.75C11.5858 15.75 11.25 15.4142 11.25 15V12.75H9C8.58579 12.75 8.25 12.4142 8.25 12C8.25 11.5858 8.58579 11.25 9 11.25H11.25V9C11.25 8.58579 11.5858 8.25 12 8.25Z"
  />
  <path
    d="M3 3C3 1.89543 3.89543 1 5 1H14.9822C15.5127 1 16.0214 1.21071 16.3964 1.58579L20.4142 5.60355C20.7893 5.97863 21 6.48733 21 7.01777V21C21 22.1046 20.1046 23 19 23H5C3.89543 23 3 22.1046 3 21V3ZM5 2.5C4.72386 2.5 4.5 2.72386 4.5 3V21C4.5 21.2761 4.72386 21.5 5 21.5H19C19.2761 21.5 19.5 21.2761 19.5 21V7.01777C19.5 6.88516 19.4473 6.75798 19.3536 6.66421L15.3358 2.64645C15.242 2.55268 15.1148 2.5 14.9822 2.5H5Z"
  />
</svg>

<svg xmlns="http://www.w3.org/2000/svg" width="24" height="24" viewBox="0 0 24 24"><path d="M12 8.25a.75.75 0 0 1 .75.75v2.25H15a.75.75 0 0 1 0 1.5h-2.25V15a.75.75 0 0 1-1.5 0v-2.25H9a.75.75 0 0 1 0-1.5h2.25V9a.75.75 0 0 1 .75-.75Z"/><path d="M3 3a2 2 0 0 1 2-2h9.982a2 2 0 0 1 1.414.586l4.018 4.018A2 2 0 0 1 21 7.018V21a2 2 0 0 1-2 2H5a2 2 0 0 1-2-2V3Zm2-.5a.5.5 0 0 0-.5.5v18a.5.5 0 0 0 .5.5h14a.5.5 0 0 0 .5-.5V7.018a.5.5 0 0 0-.146-.354l-4.018-4.018a.5.5 0 0 0-.354-.146H5Z"/></svg>
